X:1
T:Henry, My Son
M:3/4
L:1/4
K:G
 B B/2A/2 G-| G d d/2d/2| d z B| B/2A/2 G- G| A A/2B/2 A| z B- B/2A/2|\
 A/2 G z/2 d-| d/2c/2 c/2 B A/4B/4|
M:3/4
 B B B| G- G A/2B/2| c/2F/2 B A| G- G||
